X: 1
T: Humours Of Castle Bernard, The
M: 4/4
L: 1/8
R: hornpipe
K: Dmaj
fe|:dfAd (3DFA df|afbf agfe|dfAd (3DFA df|(3efe (3dcB Agfe|
dfAd (3DFA df|afbf agfe|d^def (3gec (3ABc|1dfec d2 fe:|2dfec d2 ed||
cdef gecA|dcde fdef|gfga bagf|(3efd (3cdB A2 AB|
cdef gecA|dcde fdef|gbag (3fed (3edc|1dfec d2 ed:|2dfec d2 fe||
